packages/ui-icons/svg/Solid/permissions.svg

<svg viewBox="0 0 1920 1920" version="1.1" xmlns="http://www.w3.org/2000/svg">
    <path d="M1600,1066.66667 C1717.65333,1066.66667 1813.33333,1162.34667 1813.33333,1280 L1813.33333,1280 L1813.33333,1386.66667 L1920,1386.66667 L1920,1760 C1920,1848.21333 1848.21333,1920 1760,1920 L1760,1920 L1440,1920 C1351.78667,1920 1280,1848.21333 1280,1760 L1280,1760 L1280,1386.66667 L1386.66667,1386.66667 L1386.66667,1280 C1386.66667,1162.34667 1482.34667,1066.66667 1600,1066.66667 Z M800,0 C890.666667,0 979.2,25.6 1054.93333,73.6 C1084.8,91.7333333 1113.6,114.133333 1139.2,139.733333 C1188.26667,188.8 1224,246.613333 1247.25333,309.546667 C1258.56,339.946667 1268.05333,370.986667 1273.06667,403.626667 L1273.06667,403.626667 L1275.30667,418.24 L1278.93333,438.4 L1278.4,438.72 L1278.4,438.933333 L1225.70667,471.36 C1181.01333,500.266667 1130.24,532.906667 1032.64,533.226667 C1032.21333,533.226667 1031.89333,533.333333 1031.46667,533.333333 C1006.93333,533.333333 985.386667,531.2 966.186667,527.68 C965.546667,527.573333 965.12,527.36 964.48,527.253333 C908.16,516.48 871.466667,493.013333 838.186667,471.573333 C828.586667,465.28 819.413333,459.413333 810.026667,453.973333 C782.08,437.973333 752.106667,426.666667 701.866667,426.666667 L701.866667,426.666667 L701.546667,426.666667 C643.733333,426.773333 612.8,442.56 580.16,462.933333 C575.68,465.813333 571.306667,468.373333 566.72,471.36 C563.626667,473.386667 560,475.52 556.8,477.546667 C550.506667,481.6 544.106667,485.653333 537.173333,489.706667 C532.693333,492.373333 527.68,494.72 522.88,497.28 C515.946667,500.906667 508.906667,504.426667 501.12,507.733333 C494.506667,510.72 487.36,513.28 480,515.84 C473.066667,518.186667 465.493333,520.106667 457.813333,522.133333 C448.853333,524.48 440,526.72 429.973333,528.32 C428.8,528.533333 427.84,528.853333 426.666667,529.066667 L426.666667,529.066667 L426.666667,586.666667 C426.666667,603.733333 427.733333,620.8 430.933333,636.8 C454.4,819.2 611.2,960 800,960 C995.2,960 1156.26667,808.533333 1171.2,617.6 C1219.2,602.666667 1253.33333,580.266667 1280,563.2 L1280,563.2 L1280,586.666667 C1280,752.213333 1195.62667,898.453333 1067.62667,984.746667 L1067.62667,984.746667 L1072.53333,984.746667 C1172.69333,1001.49333 1271.14667,1027.52 1366.61333,1062.50667 C1313.28,1119.68 1280,1195.73333 1280,1280 L1280,1280 L1173.33333,1280 L1173.33333,1760 C1173.33333,1761.38667 1173.76,1762.66667 1173.76,1764.16 C1030.82667,1801.70667 901.333333,1813.33333 800,1813.33333 C454.506667,1813.33333 187.946667,1693.01333 25.1733333,1592 L25.1733333,1592 L0,1576.32 L0,1379.94667 C0,1239.89333 85.8666667,1116.90667 218.666667,1066.66667 C319.04,1028.58667 423.253333,1001.70667 528.853333,984.32 L528.853333,984.32 L533.653333,984.32 C419.52,907.413333 339.2,783.786667 323.2,640 C321.066667,622.933333 320,604.8 320,586.666667 L320,586.666667 L320,480 C320,423.466667 329.6,370.133333 347.733333,320 C413.866667,133.333333 592,0 800,0 Z M1600,1173.33333 C1541.22667,1173.33333 1493.33333,1221.22667 1493.33333,1280 L1493.33333,1280 L1493.33333,1386.66667 L1706.66667,1386.66667 L1706.66667,1280 C1706.66667,1221.22667 1658.77333,1173.33333 1600,1173.33333 Z" stroke="none" stroke-width="1" fill-rule="evenodd"/>
</svg>

<svg viewBox="0 0 1920 1920" version="1.1" xmlns="http://www.w3.org/2000/svg">
    <path d="M1173.333 1280v480c0 1.387.427 2.667.427 4.16-142.933 37.547-272.427 49.173-373.76 49.173-345.493 0-612.053-120.32-774.827-221.333L0 1576.32v-196.373c0-140.054 85.867-263.04 218.667-313.28 100.373-38.08 204.586-64.96 310.186-82.347h4.8C419.52 907.413 339.2 783.787 323.2 640c-2.133-17.067-3.2-35.2-3.2-53.333V480c0-56.533 9.6-109.867 27.733-160C413.867 133.333 592 0 800 0c90.667 0 179.2 25.6 254.933 73.6 29.867 18.133 58.667 40.533 84.267 66.133 49.067 49.067 84.8 106.88 108.053 169.814 11.307 30.4 20.8 61.44 25.814 94.08l2.24 14.613 3.626 20.16-.533.32v.213l-52.693 32.427c-44.694 28.907-95.467 61.547-193.067 61.867-.427 0-.747.106-1.173.106-24.534 0-46.08-2.133-65.28-5.653-.64-.107-1.067-.32-1.707-.427-56.32-10.773-93.013-34.24-126.293-55.68-9.6-6.293-18.774-12.16-28.16-17.6-27.947-16-57.92-27.306-108.16-27.306h-.32c-57.814.106-88.747 15.893-121.387 36.266-4.48 2.88-8.853 5.44-13.44 8.427-3.093 2.027-6.72 4.16-9.92 6.187-6.293 4.053-12.693 8.106-19.627 12.16-4.48 2.666-9.493 5.013-14.293 7.573-6.933 3.627-13.973 7.147-21.76 10.453-6.613 2.987-13.76 5.547-21.12 8.107-6.933 2.347-14.507 4.267-22.187 6.293-8.96 2.347-17.813 4.587-27.84 6.187-1.173.213-2.133.533-3.306.747v57.6c0 17.066 1.066 34.133 4.266 50.133C454.4 819.2 611.2 960 800 960c195.2 0 356.267-151.467 371.2-342.4 48-14.933 82.133-37.333 108.8-54.4v23.467c0 165.546-84.373 311.786-212.373 398.08h4.906a1641.19 1641.19 0 0 1 294.08 77.76C1313.28 1119.68 1280 1195.733 1280 1280h-106.667zm533.334 106.667V1280c0-58.773-47.894-106.667-106.667-106.667s-106.667 47.894-106.667 106.667v106.667h213.334zm106.666 0H1920V1760c0 88.213-71.787 160-160 160h-320c-88.213 0-160-71.787-160-160v-373.333h106.667V1280c0-117.653 95.68-213.333 213.333-213.333 117.653 0 213.333 95.68 213.333 213.333v106.667z" stroke="none" stroke-width="1" fill-rule="evenodd"/>
</svg>
